X: 5
T: Lord Dalkeiths Reel    [Bb]
O: 1779
R: reel
S: Image from Darlene Wigton, June 2017
Z: 2017 John Chambers <jc:trillian.mit.edu>
M: 2/4
L: 1/16
K: Bb
% - - - - - - - - - - - - - - - - - - - - - - - - - - - - -
V: 1 brace=2 staves=2
|:\
"Bb"(BABF) "Eb"G2B2 | "Cm"(cdec) "F7"A2F2 |\
"Bb/d"(BABF) "Eb"G2B2 | "F7"(ecAc) "Bb"B4 :: \
"Eb"[g4B4] "(Cm)"ecec | "Bb"[f4B4] dBdB |
"Eb"[g4B4] "(Cm)"ecec | "F7"A2F2 "Bb"B4 :: \
"Bb"BfBf "(Eb)"BgBg | "(F7)"BaBa "Bb"b2B2 |\
"Bb"BfBf "(Eb)"BgBg | "(F7)"BaBa "Bb"b4 :| [b4F4]
% - - - - - - - - - - - - - - - - - - - - - - - - - - - - -
V: 2 clef=bass middle=d	% Preserves the book's staff layout
|:\
B4 e4 | c4 f4 | d4 e4 | c2f2 B4 :: e2E2 e4 | d2D2 d4 | e2E2 e4 |
f4 B4 :: B4 B4 | B4 Bdfb | B4 B4 | B4 B4 :| [b4D4]
% - - - - - - - - - - - - - - - - - - - - - - - - - - - - -
%%begintext align
%%   Right hands across .|
%% Left hands back again :|
%% the two Gent.n lead thro' between the two Ladies :|.
%% the two Ladies lead thro' between the two Gent.n :|:
%% cross over one Cu. .||
%% Right and Left at top .||.
%%endtext

%%sep 1 1 500

